X: 4343
T: PRUDENCE ATTENDING. (Fra Diavolo.)
%R: air, march, polka
B: James Kerr "Merry Melodies" v.4 p.36 #343
Z: 2016 John Chambers <jc:trillian.mit.edu>
M: 2/4
L: 1/16
K: A
EE |\
E2c2B2A2 | A2E2E2z2 | E2B2E2B2 | E2Be e2E2 |\
E2c2B2A2 | A2E2E2z2 | B2E2B2E2 |[1 e2Bc A2 :|[2 e2Bc A2z2 H|]
|:\
C2E2E4- | E2F^D E2c2- | c2d^A B4- | B2cB F2G2 |\
C2E2E4- | E2F^D E2c2 | ^dcBA BAGF |[1 GFE^D E2=D2 :|[2 GFE^D | E2 |]

%%sep 1 1 500
%%sep 1 1 500

